!!!COM: Chopin, Frederic
!!!CDT: 1810///-1849///
!!!OTL: Prelude in A Minor, Op. 28, No. 9
!!!OPS: Op. 28
!!!ONM: No. 9
!!!OMD: Largo
!!!ODT: 1836///-1839///
!!!PDT: 1839///
**kern	**kern	**dynam
*staff2	*staff1	*staff1/2
*clefF4	*clefF4	*clefF4
*k[f#c#g#d#]	*k[f#c#g#d#]	*k[f#c#g#d#]
*E:	*E:	*E:
*met(C)	*met(C)	*met(C)
*M4/4	*M4/4	*M4/4
*MM36	*MM36	*MM36
=1-	=1-	=1-
*	*^	*
4EE/	(4B/	12E\ 12G#\L	f
.	.	&(12BB\&)	.
.	.	12E\ 12G#\J	.
4BBB/	8.B/L	12D#\ 12F#\L	.
.	.	12BB\	.
.	.	12D#\ 12F#\J	.
.	16B/Jk	.	.
4EE/	4B/	12E\ 12G#\L	.
.	.	12BB\	.
.	.	12E\ 12G#\J	.
8..AA/L	4c#/	12E\ 12A\L	.
.	.	12C#\	.
.	.	12E\ 12A\J	.
32GG#/Jkk	.	.	.
=2	=2	=2	=2
2FF#/	4c#/	12F#\ 12A\L	.
.	.	12C#\	.
.	.	12F#\ 12A\J	.
.	8.d#/L	12F#\ 12A\L	.
.	.	12C#\	.
.	.	12F#\ 12A\J	.
.	16d#/Jk	.	.
&(4BBB/&)	4d#/	12F#\ 12B\L	.
.	.	12D#\	.
.	.	12F#\ 12B\J	.
8..BB/L	4d#/	12G#\ 12B\L	.
.	.	12D#\	.
.	.	12G#\ 12B\J	.
32BB/Jkk	.	.	.
=3	=3	=3	=3
4CC#/	4e/	12G#\ 12B\L	.
.	.	12E\	.
.	.	12G#\ 12B\J	.
8..AA/L	8.e/L	12F#\ 12c#\L	.
.	.	12E\	.
.	.	12F#\ 12c#\J	.
.	16e/Jk	.	.
32AA/Jkk	.	.	.
4BBB/	4e/	12F#\ 12B\L	.
.	.	12E\	.
.	.	12B\J	.
4BBB/	8.d#/L	12F#\ 12B\L	.
.	.	12D#\	.
.	.	12F#\ 12B\J	.
.	16d#/Jk	.	.
=4	=4	=4	=4
4CC#/	4d#/	12G#\ 12B\L	f
.	.	12E\	.
.	.	12G#\ 12B\J	.
8..FF#/L	8.d#/L	12F#\ 12A#\L	.
.	.	12E\	.
.	.	12F#\ 12A#\J	<
.	16c#/Jk	.	.
(32FF#/Jkk	.	.	.
4DD#/)	4c#/	12F#\ 12An\L	.
.	.	12C#\	.
.	.	12F#\ 12A\J	.
4DD#/	8.c#/L	12F#\ 12A\L	.
.	.	12BB\	.
.	.	12F#\ 12A\J	.
.	16B/Jk)	.	.
=5	=5	=5	=5
4EE/	(4G#/	12C#\ 12E\L	p
.	.	12BB\	.
.	.	12E\ 12G#\J	.
4BBB/	8.B/L	12D#\ 12F#\L	.
.	.	12BB\	.
.	.	12D#\ 12F#\J	.
.	16B/Jk	.	.
4GGGn/	4B/	12Dn\ 12Gn\L	.
.	.	12BB\	.
.	.	12D\ 12G\J	<
8..GGn/L	8.B/L	12D\ 12G\L	.
.	.	12BB\	.
.	.	12D\ 12G\J	.
.	16B/Jk	.	.
32FFn/Jkk	.	.	.
=6	=6	=6	=6
4EE/	4cn/	12Gn\L	.
.	.	12Cn\	.
.	.	12G\J	.
4DDn/	4dn/	12G\ 12B-\L	.
.	.	12Dn\	.
.	.	12G\ 12B-\J	.
&(4CCn/&)	4e/	12G\ 12B-\L	.
.	.	12E\	.
.	.	12G\ 12B-\J	.
8..CC/ 8..Cn/L	8.e/L	12G\ 12c\L	.
.	.	12E\	.
.	.	12G\ 12c\J	.
.	16e/Jk	.	.
32BBB-/ 32BB-/Jkk	.	.	.
=7	=7	=7	=7
4AAA/ 4AA/	4e/	12A\ 12c#\L	.
.	.	12E\	.
.	.	12A\ 12c#\J	.
8..GGGn/ 8..GGn/L	8.e/L	12B-\ 12c#\L	.
.	.	12E\	.
.	.	12B-\ 12c#\J	.
.	16e/Jk	.	.
32GGG/ 32GG/Jkk	.	.	.
4FFFn/ 4FFn/	4fn/	12B-\ 12d-\L	.
.	.	12Fn\	.
.	.	12B-\ 12d-\J	.
4FFF-/ 4FF-/	4gn/)	12B-\ 12d-\L	.
.	.	12Gn\	.
.	.	12B-\ 12d-\J	.
=8	=8	=8	=8
2EEE-/ &(2EE-/&)	(8a-/L	12A-\ 12cn\L	ff
.	.	12E-\	.
.	8e-/J	.	.
.	.	12A-\ 12c\J	.
.	8.e-/L	12Gn\ 12c\L	.
.	.	12E-\	.
.	.	12G\ 12B-\J	.
.	16d-/Jk	.	.
4AAA-/	8.c/L	12A-\L	.
.	.	12E-\	.
.	.	12A-\J	.
.	16c-/Jk	.	.
(4BBBn/	8.Bn/L	12D#\ 12G#\L	.
.	.	12BB\	.
.	.	12D#\ 12A-\J	.
.	16B/Jk)	.	.
=9	=9	=9	=9
4EEE/ 4EE/	4B/	12E\ 12G#\L	p
.	.	12BB\	.
.	.	12E\ 12G#\J	.
4BBB/	8..B/L	12D#\ 12F#\L	.
.	.	12BB\	.
.	.	12D#\ 12F#\J	.
.	32B/Jkk	.	.
4EE/)	4B/	12E\ 12G#\L	.
.	.	12BB\	.
.	.	12E\ 12G#\J	.
8..AAA/ (8..AA/L	4cn/	12E\ 12A\L	.
.	.	12Cn\	.
.	.	12E\ 12A\J	.
32AAA/ 32AA/Jkk	.	.	.
=10	=10	=10	=10
4FFFn/ 4FFn/	4cn/	12Fn\ 12A\L	.
.	.	12Cn\	.
.	.	12F\ 12A\J	.
4CCCn/ 4CCn/	8..c/L	12E\ 12Gn\L	.
.	.	12C\	.
.	.	12E\ 12G\J	.
.	32c/Jkk	.	.
4FFF/ 4FF/)	4c/	12F\ 12A\L	.
.	.	12C\	.
.	.	12F\ 12A\J	.
8..BBB-/ (8..BB-/L	8.dn/L	12F\ 12B-\L	.
.	.	12Dn\	.
.	.	12F\ 12B-\J	.
.	16d/Jk	.	.
32BBB-/ 32BB-/Jkk	.	.	.
=11	=11	=11	=11
4GGGn/ 4GGn/	4dn/	12Gn\ 12B-\L	<
.	.	12Dn\	.
.	.	12G\ 12B-\J	.
4DDDn/ 4DDn/	8..d/L	12F#\ 12A\L	.
.	.	12D\	.
.	.	12F#\ 12A\J	.
.	32d/Jkk	.	.
4GGG/ 4GG/)	4d/	12G\ 12Bn\L	.
.	.	12D\	.
.	.	12G\ 12B\J	.
8..BBBn/ (8..BBn/L	8..d#'/L	12F#\ 12B\L	.
.	.	12D#\	.
.	.	12F#\ 12B\J	.
32BBB/ 32BB/Jkk	32e/Jkk	.	.
=12	=12	=12	=12
*^	*	*	*
2EEE/ [2EE/)	4r	4e/	12G#\ 12B\L	ff
.	.	.	12E\	.
.	.	.	12G#\ 12B\J	.
.	[4BBB\	8..e/L	12G#\ 12B\L	.
.	.	.	12E\	.
.	.	.	12G#\ 12B\J	.
.	.	32e/Jkk	.	.
2EE/]	2EEE;\ 2BBB;\]	2r	2E;\ 2G#;\ 2B;\ &(2e;\&)	.
*v	*v	*	*	*
*	*v	*v	*
==	==	==
*-	*-	*-
!!!ENC: Craig Stuart Sapp
!!!END: 2004/12/22/
